X:1
T:Title
%%score { ( 1 3 ) | ( 2 4 5 ) }
L:1/8
M:4/4
K:Ab
V:1 treble nm="Grand Piano"
V:3 treble 
V:2 treble 
V:4 treble 
V:5 treble 
V:1
 z4 z2[Q:1/4=110] E2 | c3 d c2 A2 | B3 c B2 F2 | A2 GF G2 B2 | A4 E2 E2 | c3 d c2 A2 | B3 c B2 F2 | %7
 A2 GF G2 B2 | [A,CA]6 z2 | B3 c B2 A2 | G2 B2 e2 c2 | B3 c B2 F2 | [EG]6 [EGc]2 | %13
 [=DAB]4 [DB]2 A2 | G2 B2 [Ee]2 [Ec]2 | B3 c [=DB]2 D2 |[M:3/4] E6 |[M:1/4] E2 | %18
[M:4/4] [CEc]6[K:bass][K:treble] z2 | [CE]6[K:bass][K:treble] z2 | [CF]2 [CE]2 [CEB]2 [CEA]2 | %21
 [EGd]6[K:bass][K:treble] z2 | [EGd]6[K:bass][K:treble] z2 | [DEG]6[K:bass][K:treble] z2 | %24
 [DF]2 [DE]2 [DEB]2 [DE_c]2 | [CEc]6[K:bass] z2 | [_Ge]6 z2 | [Fd]6 z2 | %28
 [Ed]2 [Ec]2 [CE=A]2 [=A,EF]2 | [DB]6[K:bass][K:treble] z2 | [_CFA]6 [A,CF]2 | %31
 [A,CE]2 A2 c2 [FBd]2 | [EAc]4 [DGB]4 |[M:3/4] [CEA]6 |] %34
V:2
 z4 z2 [A,C]2 | [A,EA]3 [A,FA] [A,EA]2 [A,CE]2 | [A,DF]3 [A,DF] [A,DF]2[K:bass] [A,B,D]2 | %3
 [E,B,D]2 [E,B,D]2 [E,B,D]2 [E,G,D]2 | [A,,A,]6[K:treble] [A,C]2 | [A,EA]3 [A,FA] [A,EA]2 [A,CE]2 | %6
 [A,DF]3 [A,DF] [A,DF]2[K:bass] [A,B,D]2 | [E,B,D]2 [E,B,D]2 [E,B,D]2 [E,G,D]2 | %8
 A,,6[K:treble] c2 | z4 =D4 | z4 E4 | z4 =D4 | E,2 B,2 G,2 E,2 | z2[K:treble] B,2[K:bass] z4 | %14
 [E,E]2 z2 [C,G,]2 [A,,A,]2 | [B,,G,]4 [B,,A,]2 [B,,A,B,]2 |[M:3/4] [E,G,B,]6 |[M:1/4] z2 | %18
[M:4/4] [A,,A,]2 E,,2 A,,2 [E,,E,]2 | [A,,A,]2 E,,2 A,,2 [E,,E,]2 | %20
 [A,,A,]2 [E,,E,]2 [A,,A,]2 [E,,E,]2 | [B,,B,]2 E,,2 B,,2 [E,,E,]2 | [B,,B,]2 E,,2 B,,2 [E,,E,]2 | %23
 [B,,B,]2 E,,2 B,,2 [E,,E,]2 | [G,,G,]2 [E,,E,]2 [G,,G,]2 [E,,E,]2 | [A,,A,]2 E,,2 A,,2 A2 | %26
 A,,2 A,2 A,2 A,2 | D,2 F,2 F,2 F,2 | F,,2 [F,=A,]2 F,2 F,2 | B,,2 D,2 D,2 F,2 | =D,6 D,2 | %31
 E,2 A,2 C2 D,2 | E,4 E,4 |[M:3/4] A,,6 |] %34
V:3
 x8 | x8 | x8 | x8 | C6 z2 | x8 | x8 | x8 | x8 | =D4 z4 | E4 z4 | =D4 z4 | x8 | x8 | x8 | E6 z2 | %16
[M:3/4] x6 |[M:1/4] x2 |[M:4/4] z2[K:bass] E,2 A,2[K:treble] [CEA]2 | %19
 z2[K:bass] E,2 A,2[K:treble] [CE]2 | x8 | z2[K:bass] E,2 B,2[K:treble] E2 | %22
 z2[K:bass] E,2 B,2[K:treble] [EGB]2 | z2[K:bass] E,2 B,2[K:treble] [DE]2 | x8 | %25
 z2[K:bass] E,2 A,2 z2 | z2 C2 C2 [CA]2 | z2 [A,D]2 [A,D]2 [A,DF]2 | x8 | %29
 z2[K:bass] [F,B,]2 [F,B,]2[K:treble] F2 | x8 | x8 | x8 |[M:3/4] x6 |] %34
V:4
 x8 | x8 | x6[K:bass] x2 | x8 | x6[K:treble] x2 | x8 | x6[K:bass] x2 | x8 | x6[K:treble] x2 | %9
 z2 F,2 B,2 F,2 | z2 G,2 B,2 G,2 | z2 F,2 B,2 F,2 | x8 | F,2[K:treble] z c[K:bass] B,,2 B,2 | x8 | %15
 x8 |[M:3/4] x6 |[M:1/4] x2 |[M:4/4] x8 | x8 | x8 | x8 | x8 | x8 | x8 | x8 | x8 | x8 | x8 | x8 | %30
 x8 | x8 | x8 |[M:3/4] x6 |] %34
V:5
 x8 | x8 | x6[K:bass] x2 | x8 | x6[K:treble] x2 | x8 | x6[K:bass] x2 | x8 | x6[K:treble] x2 | %9
 B,,8 | B,,8 | B,,8 | x8 | x2[K:treble] x2[K:bass] x4 | x8 | x8 |[M:3/4] x6 |[M:1/4] x2 | %18
[M:4/4] x8 | x8 | x8 | x8 | x8 | x8 | x8 | x8 | x8 | x8 | x8 | x8 | x8 | x8 | x8 |[M:3/4] x6 |] %34

